X: 1
T: Willie Murray
C:
N: reel, hornpipe
R: reel
Z: 2014 John Chambers <jc:trillian.mit.edu>
F: http://www.rspba.org/documents/map/WillieMurray.pdf
M: C|
L: 1/8
K: HP
[|"Bm"d2Bc dBBc | d2Bc dBfe | d2Bc dBBd | "A"c2AB cdec |
| "Bm"d2Bc dBBc | dBBc dBfe | d2Bc dBBd | "A"c2AB cdec |]
[| "D"daga fdad | fdde fgaf | daga fdad | "A"c2AB cdec |
|  "D"daga fdad | fdde fgaf | gefc eca2 | "A"c2AB cde2 |]
